src/assets/svg/background-top.svg

<svg width="1589" height="815" viewBox="0 0 1589 815" fill="none" xmlns="http://www.w3.org/2000/svg">
<path d="M-11 544H1589V604L-11 815V544Z" fill="#EF2A82"/>
<path d="M-11 0H1589V587L-11 798V0Z" fill="#172755"/>
<mask id="mask0" mask-type="alpha" maskUnits="userSpaceOnUse" x="-11" y="17" width="1600" height="799">
<path d="M-11 17.0001H1589V604L-11 815V17.0001Z" fill="#172755"/>
</mask>
<g mask="url(#mask0)">
<g opacity="0.07">
<path d="M1821.47 291.986C1691.93 102.987 1474.44 -20.9998 1228 -20.9998C830.907 -20.9998 509 300.907 509 698C509 755.771 515.814 811.951 528.681 865.779L894.824 499.636C929.922 464.538 986.828 464.538 1021.93 499.636L1317.88 795.585L1821.47 291.986Z" fill="#8794BA"/>
<path d="M1906.93 460.734L1381.43 986.239C1346.33 1021.34 1289.42 1021.34 1254.32 986.239L958.375 690.29L600.104 1048.56C723.1 1268.39 958.195 1417 1228 1417C1625.09 1417 1947 1095.09 1947 698C1947 614.861 1932.89 535.017 1906.93 460.734Z" fill="#8794BA"/>
</g>
</g>
<g opacity="0.07">
<path d="M491.387 -117.35C431.929 -204.094 332.11 -261.001 219 -261.001C36.746 -261.001 -111 -113.255 -111 68.9993C-111 95.5144 -107.873 121.299 -101.967 146.005L66.0818 -22.0439C82.191 -38.1531 108.309 -38.1531 124.418 -22.0439L260.25 113.788L491.387 -117.35Z" fill="#8794BA"/>
<path d="M530.609 -39.8988L289.418 201.292C273.309 217.402 247.191 217.402 231.082 201.292L95.25 65.4606L-69.186 229.897C-12.7343 330.792 95.1675 398.999 219 398.999C401.254 398.999 549 251.253 549 68.9993C549 30.8407 542.523 -5.80507 530.609 -39.8988Z" fill="#8794BA"/>
</g>
</svg>

<svg width="1589" height="815" fill="none" xmlns="http://www.w3.org/2000/svg"><path d="M-11 544h1600v60L-11 815V544z" fill="#EF2A82"/><path d="M-11 0h1600v587L-11 798V0z" fill="#172755"/><mask id="a" maskUnits="userSpaceOnUse" x="-11" y="17" width="1600" height="799"><path d="M-11 17h1600v587L-11 815V17z" fill="#172755"/></mask><g opacity=".07" fill="#8794BA" mask="url(#a)"><path d="M1821.47 291.986C1691.93 102.987 1474.44-21 1228-21c-397.093 0-719 321.907-719 719 0 57.771 6.814 113.951 19.681 167.779l366.143-366.143c35.098-35.098 92.004-35.098 127.106 0l295.95 295.949 503.59-503.599z"/><path d="M1906.93 460.734l-525.5 525.505c-35.1 35.101-92.01 35.101-127.11 0L958.375 690.29l-358.271 358.27C723.1 1268.39 958.195 1417 1228 1417c397.09 0 719-321.91 719-719 0-83.139-14.11-162.983-40.07-237.266z"/></g><g opacity=".07" fill="#8794BA"><path d="M491.387-117.35C431.929-204.094 332.11-261.001 219-261.001c-182.254 0-330 147.746-330 330 0 26.515 3.127 52.3 9.033 77.006L66.082-22.044c16.109-16.11 42.227-16.11 58.336 0L260.25 113.788 491.387-117.35z"/><path d="M530.609-39.899L289.418 201.292c-16.109 16.11-42.227 16.11-58.336 0L95.25 65.461-69.186 229.897C-12.734 330.792 95.167 398.999 219 398.999c182.254 0 330-147.746 330-330 0-38.158-6.477-74.804-18.391-108.898z"/></g></svg>
